;FLAVOR:Marlin
M117 Time Left 4h38m16s
;Filament used: 19.7413m
;Layer height: 0.28
;MINX:46.5
;MINY:61.5
;MINZ:0.285
;MAXX:188.5
;MAXY:173.499
;MAXZ:87.925
;POSTPROCESSED
;Generated with Cura_SteamEngine 4.6.1
M140 S60
M105
M190 S60
M104 S200
M105
M109 S200
M82 ;absolute extrusion mode
; Ender 3 Custom Start G-code
G92 E0 ; Reset Extruder
G28 ; Home all axes
G1 Z2.0 F3000 ; Move Z Axis up little to prevent scratching of Heat Bed
G1 X0.1 Y20 Z0.3 F5000.0 ; Move to start position
G1 X0.1 Y200.0 Z0.3 F1500.0 E15 ; Draw the first line
G1 X0.4 Y200.0 Z0.3 F5000.0 ; Move to side a little
G1 X0.4 Y20 Z0.3 F1500.0 E30 ; Draw the second line
G92 E0 ; Reset Extruder
G1 Z2.0 F3000 ; Move Z Axis up little to prevent scratching of Heat Bed
G1 X5 Y20 Z0.3 F5000.0 ; Move over to prevent blob squish
G92 E0
G92 E0
G1 F2700 E-6
;LAYER_COUNT:314
;LAYER:0
M107
M204 S500
M205 X8 Y8
G0 F7500 X177.637 Y62.311 Z0.285
;TYPE:SKIRT
G1 F2700 E0
G1 F1500 X178.539 Y62.364 E0.04068
G1 X179.432 Y62.496 E0.08133
G1 X180.31 Y62.707 E0.12199
G1 X181.166 Y62.995 E0.16265
G1 X181.993 Y63.357 E0.2033
G1 X182.785 Y63.792 E0.24398
G1 X183.536 Y64.294 E0.28466
G1 X184.239 Y64.861 E0.32532
G1 X184.889 Y65.488 E0.36599
G1 X185.481 Y66.17 E0.40665
G1 X186.011 Y66.901 E0.44731
G1 X186.473 Y67.677 E0.48797
G1 X186.866 Y68.49 E0.52863
G1 X187.184 Y69.335 E0.56928
G1 X187.427 Y70.205 E0.60995
G1 X187.592 Y71.093 E0.65062
G1 X187.687 Y72.223 E0.70168
G1 X187.7 Y72.83 E0.72901
G1 X187.7 Y145.764 E4.01293
G1 X187.69 Y146.617 E4.05134
G1 X187.639 Y147.519 E4.09202
G1 X187.508 Y148.413 E4.1327
G1 X187.299 Y149.291 E4.17334
G1 X187.013 Y150.148 E4.21402
G1 X186.652 Y150.976 E4.25469
G1 X186.22 Y151.768 E4.29531
G1 X185.719 Y152.52 E4.336
G1 X185.153 Y153.224 E4.37667
G1 X184.528 Y153.875 E4.4173
G1 X183.847 Y154.469 E4.45799
G1 X183.116 Y155 E4.49867
G1 X182.342 Y155.464 E4.53931
G1 X181.529 Y155.858 E4.57998
G1 X180.685 Y156.178 E4.62063
G1 X179.815 Y156.423 E4.66132
G1 X178.928 Y156.589 E4.70195
G1 X177.767 Y156.687 E4.75441
G1 X177.376 Y156.698 E4.77203
G1 X174.59 Y156.757 E4.8975
G1 X172.083 Y156.883 E5.01052
G1 X169.514 Y157.085 E5.12655
G1 X167.023 Y157.35 E5.23934
G1 X164.513 Y157.691 E5.35339
G1 X161.985 Y158.107 E5.46875
G1 X159.488 Y158.591 E5.58327
G1 X157.028 Y159.14 E5.69676
G1 X154.557 Y159.766 E5.81153
G1 X152.116 Y160.457 E5.92576
G1 X149.678 Y161.223 E6.04083
G1 X147.292 Y162.048 E6.1545
G1 X144.916 Y162.946 E6.26887
G1 X142.548 Y163.917 E6.3841
G1 X140.27 Y164.929 E6.49634
G1 X137.943 Y166.041 E6.61246
G1 X135.701 Y167.192 E6.72594
G1 X133.441 Y168.433 E6.84203
G1 X131.286 Y169.699 E6.95456
G1 X129.018 Y171.117 E7.075
G1 X128.231 Y171.561 E7.11568
G1 X127.409 Y171.935 E7.15634
G1 X126.557 Y172.234 E7.197
G1 X125.682 Y172.456 E7.23765
G1 X124.611 Y172.62 E7.28643
G1 X124.307 Y172.65 E7.30019
G1 X123.306 Y172.699 E7.34531
G1 X111.983 Y172.699 E7.85514
G1 X111.285 Y172.689 E7.88657
G1 X110.383 Y172.636 E7.92725
G1 X109.49 Y172.504 E7.9679
G1 X108.612 Y172.293 E8.00856
G1 X107.756 Y172.005 E8.04922
G1 X106.929 Y171.643 E8.08987
G1 X106.127 Y171.203 E8.13106
G1 X105.436 Y170.779 E8.16756
G1 X104.292 Y170.052 E8.22859
G1 X102.103 Y168.744 E8.34341
G1 X99.867 Y167.496 E8.45871
G1 X97.664 Y166.344 E8.57064
G1 X95.314 Y165.199 E8.68834
G1 X93.043 Y164.171 E8.80059
G1 X90.655 Y163.17 E8.91717
G1 X88.329 Y162.274 E9.0294
G1 X85.94 Y161.429 E9.1435
G1 X83.509 Y160.646 E9.2585
G1 X81.08 Y159.938 E9.37242
G1 X78.603 Y159.292 E9.48768
G1 X76.11 Y158.714 E9.6029
G1 X73.65 Y158.221 E9.71587
G1 X71.132 Y157.788 E9.83091
G1 X68.656 Y157.434 E9.94353
G1 X66.1 Y157.141 E10.05937
G1 X63.566 Y156.924 E10.17388
G1 X61.057 Y156.78 E10.28704
G1 X58.35 Y156.703 E10.40897
G1 X57.355 Y156.688 E10.45378
G1 X56.454 Y156.634 E10.49442
G1 X55.561 Y156.501 E10.53507
G1 X54.683 Y156.29 E10.57573
G1 X53.827 Y156.001 E10.61641
G1 X53 Y155.638 E10.65707
G1 X52.208 Y155.203 E10.69776
G1 X51.458 Y154.7 E10.73842
G1 X50.756 Y154.133 E10.77905
G1 X50.106 Y153.506 E10.81971
G1 X49.514 Y152.823 E10.86041
G1 X48.985 Y152.091 E10.90107
G1 X48.523 Y151.316 E10.9417
G1 X48.131 Y150.502 E10.98238
G1 X47.813 Y149.657 E11.02303
G1 X47.571 Y148.787 E11.06369
G1 X47.407 Y147.899 E11.10435
G1 X47.313 Y146.766 E11.15554
G1 X47.3 Y146.158 E11.18292
G1 X47.3 Y73.174 E14.46909
G1 X47.31 Y72.371 E14.50525
G1 X47.362 Y71.469 E14.54593
G1 X47.494 Y70.576 E14.58658
G1 X47.704 Y69.698 E14.62722
G1 X47.991 Y68.841 E14.66792
G1 X48.353 Y68.014 E14.70857
G1 X48.786 Y67.222 E14.74921
G1 X49.288 Y66.471 E14.78988
G1 X49.855 Y65.767 E14.83058
G1 X50.481 Y65.117 E14.87121
G1 X51.162 Y64.524 E14.91187
G1 X51.894 Y63.994 E14.95256
G1 X52.669 Y63.531 E14.99321
G1 X53.482 Y63.138 E15.03387
G1 X54.327 Y62.818 E15.07455
G1 X55.196 Y62.575 E15.11518
G1 X56.084 Y62.409 E15.15586
G1 X57.223 Y62.313 E15.20732
G1 X57.83 Y62.3 E15.23466
G1 X176.793 Y62.3 E20.59108
G1 X176.939 Y62.301 E20.59765
G1 X177.637 Y62.311 E20.62908
G0 F7500 X177.643 Y61.911
G1 F1500 X178.562 Y61.964 E20.67053
G1 X179.473 Y62.097 E20.71199
G1 X180.369 Y62.308 E20.75343
G1 X181.243 Y62.596 E20.79487
G1 X182.09 Y62.959 E20.83636
G1 X182.901 Y63.394 E20.87779
G1 X183.671 Y63.898 E20.91923
G1 X184.395 Y64.467 E20.96069
G1 X185.067 Y65.097 E21.00217
G1 X185.682 Y65.782 E21.04362
G1 X186.235 Y66.518 E21.08507
G1 X186.722 Y67.299 E21.12651
G1 X187.139 Y68.12 E21.16797
G1 X187.484 Y68.974 E21.20944
G1 X187.753 Y69.854 E21.25087
G1 X187.945 Y70.755 E21.29235
G1 X188.058 Y71.668 E21.33378
G1 X188.087 Y72.212 E21.35831
G1 X188.1 Y72.83 E21.38614
G1 X188.1 Y145.764 E24.67006
G1 X188.09 Y146.622 E24.70869
G1 X188.039 Y147.541 E24.75013
G1 X187.908 Y148.453 E24.79162
G1 X187.698 Y149.349 E24.83306
G1 X187.412 Y150.224 E24.8745
G1 X187.051 Y151.071 E24.91596
G1 X186.617 Y151.883 E24.95742
G1 X186.115 Y152.655 E24.99888
G1 X185.547 Y153.38 E25.04035
G1 X184.919 Y154.053 E25.08179
G1 X184.235 Y154.669 E25.12324
G1 X183.5 Y155.223 E25.16468
G1 X182.72 Y155.712 E25.20613
G1 X181.9 Y156.131 E25.2476
G1 X181.047 Y156.477 E25.28904
G1 X180.167 Y156.748 E25.3305
G1 X179.267 Y156.941 E25.37195
G1 X178.353 Y157.056 E25.41342
G1 X177.778 Y157.087 E25.43935
G1 X177.384 Y157.098 E25.4571
G1 X174.619 Y157.157 E25.58162
G1 X172.098 Y157.283 E25.69528
G1 X169.551 Y157.483 E25.81031
G1 X167.052 Y157.75 E25.92347
G1 X164.561 Y158.088 E26.03666
G1 X162.088 Y158.495 E26.1495
G1 X159.546 Y158.988 E26.26609
G1 X157.15 Y159.522 E26.37662
G1 X154.65 Y160.155 E26.49274
G1 X152.24 Y160.838 E26.60552
G1 X149.792 Y161.607 E26.72106
G1 X147.447 Y162.418 E26.83278
G1 X145.042 Y163.327 E26.94854
G1 X142.725 Y164.276 E27.06128
G1 X140.397 Y165.311 E27.17599
G1 X138.134 Y166.393 E27.28894
G1 X135.869 Y167.555 E27.40356
G1 X133.672 Y168.762 E27.51642
G1 X131.479 Y170.05 E27.63094
G1 X129.23 Y171.456 E27.75036
G1 X128.429 Y171.91 E27.79182
G1 X127.591 Y172.293 E27.8333
G1 X126.724 Y172.601 E27.87473
G1 X125.833 Y172.833 E27.91619
G1 X124.65 Y173.018 E27.9701
G1 X124.346 Y173.048 E27.98385
G1 X123.306 Y173.099 E28.03074
G1 X111.977 Y173.099 E28.54083
G1 X111.279 Y173.089 E28.57227
G1 X110.36 Y173.036 E28.61371
G1 X109.449 Y172.903 E28.65517
G1 X108.553 Y172.692 E28.69661
G1 X107.679 Y172.404 E28.73805
G1 X106.832 Y172.041 E28.77954
G1 X105.919 Y171.544 E28.82634
G1 X105.221 Y171.117 E28.86319
G1 X104.078 Y170.391 E28.92416
G1 X101.883 Y169.079 E29.0393
G1 X99.694 Y167.857 E29.15218
G1 X97.454 Y166.686 E29.26598
G1 X95.181 Y165.579 E29.37982
G1 X92.872 Y164.534 E29.49394
G1 X90.522 Y163.549 E29.60867
G1 X88.168 Y162.642 E29.72225
G1 X85.82 Y161.811 E29.8344
G1 X83.38 Y161.024 E29.94984
G1 X80.972 Y160.323 E30.06276
G1 X78.517 Y159.683 E30.17699
G1 X76.007 Y159.101 E30.29301
G1 X73.582 Y158.615 E30.40436
G1 X71.079 Y158.184 E30.51872
G1 X68.585 Y157.828 E30.63216
G1 X66.06 Y157.538 E30.74659
G1 X63.577 Y157.326 E30.8588
G1 X61.022 Y157.18 E30.97403
G1 X58.333 Y157.103 E31.09515
G1 X57.349 Y157.088 E31.13946
G1 X56.43 Y157.034 E31.18091
G1 X55.519 Y156.901 E31.22237
G1 X54.623 Y156.689 E31.26382
G1 X53.749 Y156.4 E31.30527
G1 X52.903 Y156.036 E31.34674
G1 X52.092 Y155.601 E31.38818
G1 X51.322 Y155.096 E31.42964
G1 X50.599 Y154.527 E31.47107
G1 X49.927 Y153.897 E31.51254
G1 X49.313 Y153.211 E31.55399
G1 X48.761 Y152.475 E31.59542
G1 X48.274 Y151.693 E31.6369
G1 X47.858 Y150.872 E31.67834
G1 X47.514 Y150.018 E31.71979
G1 X47.245 Y149.137 E31.76127
G1 X47.054 Y148.237 E31.80269
G1 X46.942 Y147.323 E31.84416
G1 X46.913 Y146.777 E31.86877
G1 X46.9 Y146.158 E31.89665
G1 X46.9 Y73.174 E35.18282
G1 X46.91 Y72.366 E35.21921
G1 X46.962 Y71.446 E35.2607
G1 X47.094 Y70.535 E35.30214
G1 X47.305 Y69.639 E35.34359
G1 X47.592 Y68.764 E35.38505
G1 X47.955 Y67.918 E35.4265
G1 X48.389 Y67.106 E35.46796
G1 X48.892 Y66.335 E35.50941
G1 X49.461 Y65.611 E35.55087
G1 X50.089 Y64.939 E35.59228
G1 X50.774 Y64.323 E35.63376
G1 X51.51 Y63.77 E35.67521
G1 X52.291 Y63.282 E35.71668
G1 X53.111 Y62.864 E35.75812
G1 X53.965 Y62.519 E35.79959
G1 X54.845 Y62.249 E35.84104
G1 X55.745 Y62.057 E35.88247
G1 X56.659 Y61.943 E35.92395
G1 X57.212 Y61.913 E35.94888
G1 X57.83 Y61.9 E35.97671
G1 X176.793 Y61.9 E41.33313
G1 X176.945 Y61.901 E41.33997
G1 X177.643 Y61.911 E41.37141
G0 F7500 X177.649 Y61.511
G1 F1500 X178.585 Y61.565 E41.41362
G1 X179.513 Y61.697 E41.45582
G1 X180.427 Y61.909 E41.49807
G1 X181.319 Y62.198 E41.54029
G1 X182.184 Y62.561 E41.58253
G1 X183.014 Y62.997 E41.62474
G1 X183.805 Y63.502 E41.667
G1 X184.549 Y64.073 E41.70922
G1 X185.242 Y64.705 E41.75145
G1 X185.879 Y65.393 E41.79367
G1 X186.454 Y66.134 E41.8359
G1 X186.965 Y66.92 E41.87811
G1 X187.407 Y67.748 E41.92037
G1 X187.776 Y68.61 E41.96259
G1 X188.071 Y69.5 E42.00481
G1 X188.289 Y70.412 E42.04703
G1 X188.429 Y71.34 E42.08929
G1 X188.487 Y72.201 E42.12814
G1 X188.5 Y72.83 E42.15647
G1 X188.5 Y145.764 E45.44039
G1 X188.49 Y146.627 E45.47925
G1 X188.439 Y147.564 E45.5215
G1 X188.307 Y148.492 E45.56371
G1 X188.098 Y149.406 E45.60592
G1 X187.811 Y150.299 E45.64816
G1 X187.449 Y151.165 E45.69042
G1 X187.015 Y151.996 E45.73263
G1 X186.511 Y152.787 E45.77486
G1 X185.942 Y153.532 E45.81707
G1 X185.311 Y154.227 E45.85934
G1 X184.624 Y154.865 E45.90155
G1 X183.885 Y155.442 E45.94377
G1 X183.099 Y155.954 E45.986
G1 X182.273 Y156.397 E46.02821
G1 X181.411 Y156.769 E46.07048
G1 X180.522 Y157.065 E46.11267
G1 X179.61 Y157.285 E46.15491
G1 X178.683 Y157.426 E46.19713
G1 X177.789 Y157.487 E46.23747
G1 X177.393 Y157.498 E46.25531
G1 X174.612 Y157.557 E46.38056
G1 X172.114 Y157.683 E46.49317
G1 X169.628 Y157.878 E46.60545
G1 X167.112 Y158.146 E46.71938
G1 X164.608 Y158.486 E46.83316
G1 X162.124 Y158.895 E46.94651
G1 X159.678 Y159.369 E47.05869
G1 X157.222 Y159.917 E47.17199
G1 X154.752 Y160.542 E47.28671
G1 X152.331 Y161.228 E47.40001
G1 X149.937 Y161.98 E47.513
G1 X147.583 Y162.794 E47.62514
G1 X145.187 Y163.7 E47.74048
G1 X142.89 Y164.641 E47.85225
G1 X140.552 Y165.68 E47.96745
G1 X138.324 Y166.745 E48.07864
G1 X136.065 Y167.904 E48.19295
G1 X133.846 Y169.124 E48.30697
G1 X131.687 Y170.391 E48.41969
G1 X129.442 Y171.795 E48.53891
G1 X128.626 Y172.258 E48.58115
G1 X127.774 Y172.65 E48.62338
G1 X126.892 Y172.968 E48.6656
G1 X125.985 Y173.209 E48.70785
G1 X124.689 Y173.416 E48.76694
G1 X124.385 Y173.446 E48.7807
G1 X123.306 Y173.499 E48.82934
G1 X111.971 Y173.499 E49.33971
G1 X111.273 Y173.489 E49.37114
G1 X110.337 Y173.435 E49.41335
G1 X109.409 Y173.303 E49.45556
G1 X108.495 Y173.091 E49.49781
G1 X107.603 Y172.802 E49.54002
G1 X106.738 Y172.439 E49.58226
G1 X105.711 Y171.886 E49.63478
G1 X105.007 Y171.455 E49.67195
G1 X103.854 Y170.722 E49.73347
G1 X101.714 Y169.444 E49.8457
G1 X99.479 Y168.196 E49.96095
G1 X97.286 Y167.05 E50.07237
G1 X94.991 Y165.931 E50.18733
G1 X92.731 Y164.909 E50.29901
G1 X90.36 Y163.915 E50.41477
G1 X88.027 Y163.016 E50.52734
G1 X85.68 Y162.186 E50.63943
G1 X83.282 Y161.413 E50.75287
G1 X80.865 Y160.708 E50.86624
G1 X78.397 Y160.065 E50.98107
G1 X75.943 Y159.496 E51.09449
G1 X73.536 Y159.014 E51.20502
G1 X70.992 Y158.576 E51.32125
G1 X68.56 Y158.228 E51.43187
G1 X66.013 Y157.936 E51.54731
G1 X63.521 Y157.723 E51.65992
G1 X61.023 Y157.58 E51.77258
G1 X58.314 Y157.503 E51.8946
G1 X57.343 Y157.488 E51.93833
G1 X56.407 Y157.434 E51.98054
G1 X55.479 Y157.3 E52.02276
G1 X54.565 Y157.088 E52.06501
G1 X53.673 Y156.798 E52.10724
G1 X52.809 Y156.434 E52.14945
G1 X51.979 Y155.998 E52.19167
G1 X51.189 Y155.492 E52.23391
G1 X50.445 Y154.921 E52.27614
G1 X49.752 Y154.289 E52.31837
G1 X49.116 Y153.599 E52.36062
G1 X48.541 Y152.859 E52.40281
G1 X48.031 Y152.072 E52.44504
G1 X47.59 Y151.244 E52.48728
G1 X47.221 Y150.382 E52.5295
G1 X46.927 Y149.491 E52.57174
G1 X46.709 Y148.579 E52.61396
G1 X46.571 Y147.651 E52.65621
G1 X46.513 Y146.788 E52.69515
G1 X46.5 Y146.158 E52.72352
G1 X46.5 Y73.174 E56.00969
G1 X46.51 Y72.36 E56.04635
G1 X46.563 Y71.424 E56.08856
G1 X46.695 Y70.495 E56.13081
G1 X46.906 Y69.581 E56.17305
G1 X47.194 Y68.689 E56.21525
G1 X47.557 Y67.824 E56.25749
G1 X47.992 Y66.993 E56.29972
G1 X48.496 Y66.203 E56.34191
G1 X49.066 Y65.458 E56.38415
G1 X49.698 Y64.764 E56.42641
G1 X50.386 Y64.127 E56.46863
G1 X51.126 Y63.551 E56.51085
G1 X51.912 Y63.039 E56.55309
G1 X52.739 Y62.597 E56.59531
G1 X53.601 Y62.227 E56.63755
G1 X54.491 Y61.931 E56.67978
G1 X55.403 Y61.713 E56.722
G1 X56.33 Y61.572 E56.76422
G1 X57.201 Y61.513 E56.80353
G1 X57.83 Y61.5 E56.83185
G1 X176.793 Y61.5 E62.18827
G1 X176.951 Y61.501 E62.19538
G1 X177.649 Y61.511 E62.22682
G1 F2700 E56.22682
G0 F7500 X178.161 Y72.343
G0 X178.161 Y146.657
G0 X177.657 Y147.161
G0 X115.105 Y150.635
G0 X115.105 Y151.1
G1 F2700 E62.22682
G1 F1500 X119.895 Y151.1 E62.44249
G1 X119.896 Y158.7 E62.78469
G1 X115.105 Y158.7 E63.00041
G1 X115.105 Y151.1 E63.3426
G0 F7500 X114.705 Y150.7
G1 F1500 X120.295 Y150.7 E63.5943
G1 X120.296 Y159.1 E63.97252
G1 X114.705 Y159.1 E64.22426
G1 X114.705 Y150.7 E64.60247
G0 F7500 X114.305 Y150.3
G1 F1500 X120.695 Y150.3 E64.89019
G1 X120.696 Y159.5 E65.30443
G1 X114.305 Y159.5 E65.59219
G1 X114.305 Y150.3 E66.00643
G0 F7500 X113.905 Y149.9
G1 F1500 X121.095 Y149.9 E66.33016
G1 X121.096 Y159.9 E66.78042
G1 X113.905 Y159.9 E67.1042
G1 X113.905 Y149.9 E67.55446
G0 F7500 X113.505 Y149.5
G1 F1500 X121.495 Y149.5 E67.91422
G1 X121.496 Y160.3 E68.4005
G1 X113.505 Y160.3 E68.7603
G1 X113.505 Y149.5 E69.24658
G0 F7500 X113.105 Y149.1
G1 F1500 X121.895 Y149.1 E69.64236
G1 X121.896 Y160.7 E70.16466
G1 X113.105 Y160.7 E70.56048
G1 X113.105 Y149.1 E71.08278
G0 F7500 X112.705 Y148.7
G1 F1500 X122.295 Y148.7 E71.51458
G1 X122.295 Y148.865 E71.52201
G1 X122.296 Y161.1 E72.0729
G1 X112.705 Y161.1 E72.50475
G1 X112.705 Y148.7 E73.06307
G0 F7500 X112.305 Y148.3
G1 F1500 X122.695 Y148.3 E73.53089
G1 X122.695 Y148.865 E73.55633
G1 X122.696 Y161.5 E74.12523
G1 X112.305 Y161.5 E74.59309
G1 X112.305 Y148.3 E75.18743
G0 F7500 X111.905 Y147.9
G1 F1500 X123.095 Y147.9 E75.69127
G1 X123.095 Y148.865 E75.73472
G1 X123.096 Y161.9 E76.32164
G1 X111.905 Y161.9 E76.82552
G1 X111.905 Y147.9 E77.45588
G0 F7500 X111.505 Y147.5
G1 F1500 X123.495 Y147.5 E77.99574
G1 X123.495 Y148.865 E78.0572
G1 X123.496 Y162.3 E78.66213
G1 X111.505 Y162.3 E79.20203
G1 X111.505 Y147.5 E79.86842
G1 F2700 E73.86842
G0 F7500 X115.505 Y150.635
G0 X115.505 Y151.5
;TYPE:SUPPORT
G1 F2700 E79.86842
G1 F1800 X119.495 Y151.5 E80.04807
G1 X119.496 Y158.3 E80.35425
G1 X115.505 Y158.3 E80.53395
G1 X115.505 Y151.5 E80.84012
G0 F7500 X115.905 Y151.9
G1 F1800 X119.095 Y151.9 E80.98375
G1 X119.096 Y157.9 E81.25391
G1 X115.905 Y157.9 E81.39759
G1 X115.905 Y151.9 E81.66774
G0 F7500 X116 Y151.98
G1 F1800 X116 Y157.82 E81.93069
G0 F7500 X115.984 Y156
G1 F1800 X119.015 Y156 E82.06717
G0 F7500 X119.015 Y154
G1 F1800 X115.984 Y154 E82.20364
G0 F7500 X115.984 Y152
G1 F1800 X119.015 Y152 E82.34011
G0 F7500 X118 Y151.98
G1 F1800 X118 Y157.82 E82.60307
G1 F2700 E76.60307
;MESH:soporte_dremel_accesorios.stl
G0 F7500 X118 Y159.165
G0 X120.349 Y159.153
G0 X120.348 Y150.647
G0 X117.768 Y150.633
G0 X117.177 Y128.792
G0 X116.83 Y130.215
G0 X115.88 Y129.328
G0 X115.49 Y128.886
G0 X115.217 Y128.365
G0 X115.076 Y127.793
G0 X115.076 Y127.207
G0 X115.189 Y126.745
