;FLAVOR:Marlin
M117 Time Left 3h03m42s
;Filament used: 13.9492m
;Layer height: 0.28
;MINX:12.903
;MINY:13.125
;MINZ:0.285
;MAXX:222.704
;MAXY:222.926
;MAXZ:44.805
;POSTPROCESSED
;Generated with Cura_SteamEngine 4.6.1
M140 S60
M105
M190 S60
M104 S200
M105
M109 S200
M82 ;absolute extrusion mode
; Ender 3 Custom Start G-code
G92 E0 ; Reset Extruder
G28 ; Home all axes
G1 Z2.0 F3000 ; Move Z Axis up little to prevent scratching of Heat Bed
G1 X0.1 Y20 Z0.3 F5000.0 ; Move to start position
G1 X0.1 Y200.0 Z0.3 F1500.0 E15 ; Draw the first line
G1 X0.4 Y200.0 Z0.3 F5000.0 ; Move to side a little
G1 X0.4 Y20 Z0.3 F1500.0 E30 ; Draw the second line
G92 E0 ; Reset Extruder
G1 Z2.0 F3000 ; Move Z Axis up little to prevent scratching of Heat Bed
G1 X5 Y20 Z0.3 F5000.0 ; Move over to prevent blob squish
G92 E0
G92 E0
G1 F2700 E-6
;LAYER_COUNT:160
;LAYER:0
M107
M204 S500
M205 X8 Y8
;MESH:soporte_dremel_principal.stl
G0 F7500 X123.215 Y112.02 Z0.285
;TYPE:WALL-INNER
G1 F2700 E0
G1 F1800 X123.754 Y112.569 E0.03464
G1 X124.412 Y112.979 E0.06955
G1 X125.149 Y113.216 E0.10441
G1 X125.868 Y113.265 E0.13686
G1 X125.916 Y113.269 E0.13902
G1 X126.676 Y113.141 E0.17373
G1 X127.387 Y112.832 E0.20863
G1 X127.999 Y112.362 E0.24338
G1 X128.482 Y111.759 E0.27816
G1 X128.806 Y111.057 E0.31298
G1 X128.954 Y110.3 E0.34771
G1 X128.917 Y109.529 E0.38246
G1 X128.696 Y108.788 E0.41728
G1 X128.302 Y108.121 E0.45216
G1 X127.763 Y107.572 E0.4868
G1 X127.105 Y107.162 E0.52171
G1 X126.368 Y106.925 E0.55656
G1 X125.649 Y106.876 E0.58901
G1 X125.601 Y106.872 E0.59118
G1 X124.841 Y107 E0.62588
G1 X124.13 Y107.309 E0.66079
G1 X123.518 Y107.779 E0.69553
G1 X123.035 Y108.382 E0.73032
G1 X122.711 Y109.084 E0.76513
G1 X122.563 Y109.841 E0.79986
G1 X122.6 Y110.612 E0.83462
G1 X122.821 Y111.353 E0.86943
G1 X123.215 Y112.02 E0.90431
G0 F7500 X123.535 Y111.775
G1 F1800 X124.006 Y112.255 E0.93459
G1 X124.581 Y112.613 E0.96509
G1 X125.225 Y112.82 E0.99555
G1 X125.896 Y112.867 E1.02584
G1 X126.561 Y112.755 E1.0562
G1 X127.182 Y112.485 E1.08669
G1 X127.717 Y112.074 E1.11707
G1 X128.139 Y111.547 E1.14746
G1 X128.423 Y110.933 E1.17792
G1 X128.552 Y110.271 E1.20829
G1 X128.52 Y109.597 E1.23867
G1 X128.327 Y108.949 E1.26912
G1 X127.982 Y108.366 E1.29962
G1 X127.511 Y107.886 E1.3299
G1 X126.936 Y107.528 E1.3604
G1 X126.292 Y107.321 E1.39085
G1 X125.621 Y107.274 E1.42114
G1 X124.956 Y107.386 E1.4515
G1 X124.335 Y107.656 E1.48199
G1 X123.8 Y108.067 E1.51237
G1 X123.378 Y108.594 E1.54277
G1 X123.094 Y109.208 E1.57323
G1 X122.965 Y109.87 E1.6036
G1 X122.997 Y110.544 E1.63398
G1 X123.19 Y111.192 E1.66442
G1 X123.535 Y111.775 E1.69492
G0 F7500 X123.854 Y111.529
;TYPE:WALL-OUTER
G1 F1800 X124.258 Y111.941 E1.71961
G1 X124.75 Y112.247 E1.74439
G1 X125.301 Y112.424 E1.76914
G1 X125.877 Y112.465 E1.79385
G1 X126.446 Y112.369 E1.81853
G1 X126.977 Y112.138 E1.8433
G1 X127.435 Y111.786 E1.86801
G1 X127.796 Y111.335 E1.89272
G1 X128.04 Y110.809 E1.91752
G1 X128.15 Y110.242 E1.94222
G1 X128.123 Y109.664 E1.96697
G1 X127.958 Y109.11 E1.9917
G1 X127.663 Y108.612 E2.01646
G1 X127.259 Y108.2 E2.04114
G1 X126.767 Y107.894 E2.06592
G1 X126.216 Y107.717 E2.09068
G1 X125.64 Y107.676 E2.11538
G1 X125.071 Y107.772 E2.14006
G1 X124.54 Y108.003 E2.16483
G1 X124.082 Y108.355 E2.18954
G1 X123.721 Y108.806 E2.21425
G1 X123.477 Y109.332 E2.23905
G1 X123.367 Y109.899 E2.26376
G1 X123.394 Y110.477 E2.28851
G1 X123.559 Y111.031 E2.31324
G1 X123.854 Y111.529 E2.33799
G0 F7500 X124.134 Y111.814
G0 X123.819 Y112.121
G1 F2700 E-3.66201
G0 F7500 X123.062 Y112.137
G0 X124.544 Y110.998
G0 X55.337 Y179.281
G0 X55.696 Y177.446
G0 X53.42 Y178.019
;TYPE:WALL-INNER
G1 F2700 E2.33799
G1 F1800 X52.807 Y178.49 E2.3728
G1 X52.324 Y179.093 E2.40759
G1 X52 Y179.795 E2.4424
G1 X51.852 Y180.551 E2.47709
G1 X51.889 Y181.323 E2.51189
G1 X52.111 Y182.064 E2.54672
G1 X52.503 Y182.73 E2.58151
G1 X53.043 Y183.282 E2.61628
G1 X53.701 Y183.689 E2.65112
G1 X54.435 Y183.927 E2.68586
G1 X55.157 Y183.976 E2.71844
G1 X55.205 Y183.98 E2.72061
G1 X55.965 Y183.852 E2.75531
G1 X56.676 Y183.543 E2.79022
G1 X57.288 Y183.073 E2.82496
G1 X57.772 Y182.469 E2.85981
G1 X58.095 Y181.768 E2.89457
G1 X58.244 Y181.013 E2.92922
G1 X58.207 Y180.239 E2.96411
G1 X57.985 Y179.498 E2.99894
G1 X57.593 Y178.832 E3.03373
G1 X57.053 Y178.28 E3.0685
G1 X56.395 Y177.873 E3.10334
G1 X55.659 Y177.635 E3.13817
G1 X54.937 Y177.586 E3.17075
G1 X54.889 Y177.582 E3.17292
G1 X54.129 Y177.711 E3.20763
G1 X53.42 Y178.019 E3.24243
G0 F7500 X53.625 Y178.366
G1 F1800 X53.089 Y178.778 E3.27287
G1 X52.667 Y179.305 E3.30327
G1 X52.383 Y179.919 E3.33373
G1 X52.254 Y180.58 E3.36406
G1 X52.286 Y181.255 E3.39448
G1 X52.48 Y181.903 E3.42494
G1 X52.823 Y182.485 E3.45536
G1 X53.295 Y182.967 E3.48573
G1 X53.87 Y183.323 E3.51618
G1 X54.512 Y183.531 E3.54657
G1 X55.185 Y183.578 E3.57694
G1 X55.85 Y183.466 E3.60731
G1 X56.471 Y183.196 E3.6378
G1 X57.006 Y182.785 E3.66817
G1 X57.429 Y182.257 E3.69864
G1 X57.712 Y181.644 E3.72904
G1 X57.842 Y180.983 E3.75937
G1 X57.81 Y180.307 E3.78984
G1 X57.616 Y179.659 E3.8203
G1 X57.273 Y179.077 E3.85071
G1 X56.801 Y178.595 E3.88109
G1 X56.226 Y178.239 E3.91154
G1 X55.582 Y178.031 E3.94201
G1 X54.909 Y177.984 E3.97239
G1 X54.244 Y178.097 E4.00276
G1 X53.625 Y178.366 E4.03315
G0 F7500 X53.83 Y178.713
;TYPE:WALL-OUTER
G1 F1800 X53.371 Y179.066 E4.05792
G1 X53.01 Y179.517 E4.08263
G1 X52.766 Y180.043 E4.10743
G1 X52.656 Y180.609 E4.13209
G1 X52.683 Y181.187 E4.15684
G1 X52.849 Y181.742 E4.18162
G1 X53.143 Y182.24 E4.20636
G1 X53.547 Y182.652 E4.23104
G1 X54.039 Y182.957 E4.2558
G1 X54.589 Y183.135 E4.28053
G1 X55.166 Y183.176 E4.30527
G1 X55.735 Y183.08 E4.32996
G1 X56.266 Y182.849 E4.35472
G1 X56.724 Y182.497 E4.37943
G1 X57.086 Y182.045 E4.4042
G1 X57.329 Y181.52 E4.42895
G1 X57.44 Y180.953 E4.45366
G1 X57.413 Y180.375 E4.47841
G1 X57.247 Y179.82 E4.50319
G1 X56.953 Y179.322 E4.52793
G1 X56.549 Y178.91 E4.55261
G1 X56.057 Y178.605 E4.57737
G1 X55.505 Y178.427 E4.60218
G1 X54.929 Y178.386 E4.62688
G1 X54.359 Y178.483 E4.65161
G1 X53.83 Y178.713 E4.67629
G0 F7500 X53.513 Y178.956
G0 X53.246 Y178.608
G1 F2700 E-1.32371
G0 F7500 X53.282 Y177.886
G0 X54.271 Y179.463
G0 X43.006 Y164.307
G0 X44.065 Y165.899
G0 X43.946 Y165.721
;TYPE:WALL-INNER
G1 F2700 E4.67629
G1 F1800 X195.268 Y14.398 E14.31194
G1 X195.408 Y14.258 E14.32085
G1 X195.548 Y14.398 E14.3266
G1 X221.431 Y40.281 E15.97473
G1 X221.571 Y40.421 E15.98365
G1 X221.431 Y40.561 E15.98939
G1 X70.108 Y191.883 E25.62504
G1 X69.742 Y192.783 E25.66879
G1 X59.856 Y216.986 E26.84595
G1 X55.048 Y221.794 E27.15211
G1 X14.035 Y180.781 E29.76366
G1 X18.843 Y175.973 E30.06982
G1 X43.946 Y165.721 E31.29073
G0 F7500 X43.72 Y165.381
G1 F1800 X195.268 Y13.832 E40.94077
G1 X195.408 Y13.692 E40.94968
G1 X195.548 Y13.832 E40.95543
G1 X221.997 Y40.281 E42.6396
G1 X222.137 Y40.421 E42.64852
G1 X221.997 Y40.561 E42.65427
G1 X70.448 Y192.109 E52.30431
G1 X70.112 Y192.934 E52.34442
G1 X60.195 Y217.213 E53.52528
G1 X55.048 Y222.36 E53.85302
G1 X13.469 Y180.781 E56.50061
G1 X18.616 Y175.634 E56.82835
G1 X43.72 Y165.381 E58.04932
G0 F7500 X43.494 Y165.041
;TYPE:WALL-OUTER
G1 F1800 X195.267 Y13.267 E67.23047
G1 X195.408 Y13.126 E67.239
G1 X195.549 Y13.267 E67.24451
G1 X222.703 Y40.421 E68.88712
G1 X217.188 Y45.936 E69.22074
G1 X70.788 Y192.335 E78.0768
G1 X70.482 Y193.085 E78.11145
G1 X60.534 Y217.44 E79.23678
G1 X55.048 Y222.926 E79.56864
G1 X12.903 Y180.781 E82.11809
G1 X18.389 Y175.295 E82.44995
G1 X43.494 Y165.041 E83.60993
G0 F7500 X43.776 Y164.759
G0 X44.086 Y165.071
G0 X44.166 Y166.052
;TYPE:SKIN
G1 F1800 X195.408 Y14.808 E93.24052
G1 X221.021 Y40.421 E94.87146
G1 X69.776 Y191.663 E104.50208
G1 X69.381 Y192.636 E104.54936
G1 X59.524 Y216.768 E105.72307
G1 X55.048 Y221.244 E106.00809
G1 X14.585 Y180.781 E108.58462
G1 X19.06 Y176.306 E108.86957
G1 X44.166 Y166.052 E110.09064
G1 F2700 E104.09064
G0 F7500 X44.01 Y165.814
G0 X44.065 Y165.899
G0 X43.006 Y164.307
G0 X54.271 Y179.463
G0 X53.271 Y177.894
G0 X53.362 Y177.924
G0 X53.221 Y177.68
G1 F2700 E110.09064
G1 F1800 X52.532 Y178.209 E110.12975
G1 X51.99 Y178.886 E110.1688
G1 X51.626 Y179.674 E110.20788
G1 X51.46 Y180.522 E110.24679
G1 X51.501 Y181.389 E110.28587
G1 X51.751 Y182.222 E110.32503
G1 X52.191 Y182.968 E110.36403
G1 X52.797 Y183.588 E110.40306
G1 X53.536 Y184.046 E110.44221
G1 X54.361 Y184.313 E110.48125
G1 X55.224 Y184.372 E110.5202
G1 X56.076 Y184.229 E110.5591
G1 X56.875 Y183.882 E110.59832
G1 X57.563 Y183.354 E110.63737
G1 X58.106 Y182.676 E110.67648
G1 X58.469 Y181.889 E110.71551
G1 X58.636 Y181.042 E110.75438
G1 X58.595 Y180.173 E110.79355
G1 X58.345 Y179.34 E110.83271
G1 X57.905 Y178.594 E110.8717
G1 X57.299 Y177.974 E110.91074
G1 X56.56 Y177.516 E110.94989
G1 X55.733 Y177.249 E110.98902
G1 X54.869 Y177.19 E111.02801
G1 X54.018 Y177.335 E111.06688
G1 X53.221 Y177.68 E111.10598
G1 F2700 E105.10598
G0 F7500 X53.362 Y177.924
G0 X55.696 Y177.446
G0 X55.337 Y179.281
G0 X124.544 Y110.998
G0 X123.062 Y112.137
G0 X123.128 Y112.09
G0 X122.903 Y112.26
G1 F2700 E111.10598
G1 F1800 X123.508 Y112.875 E111.14482
G1 X124.246 Y113.336 E111.184
G1 X125.075 Y113.602 E111.2232
G1 X125.935 Y113.661 E111.26202
G1 X126.787 Y113.518 E111.30092
G1 X127.586 Y113.171 E111.34014
G1 X128.274 Y112.643 E111.37919
G1 X128.816 Y111.966 E111.41824
G1 X129.18 Y111.178 E111.45732
G1 X129.346 Y110.329 E111.49627
G1 X129.305 Y109.463 E111.53531
G1 X129.056 Y108.63 E111.57445
G1 X128.614 Y107.881 E111.61361
G1 X128.009 Y107.266 E111.65245
G1 X127.271 Y106.805 E111.69163
G1 X126.442 Y106.539 E111.73083
G1 X125.582 Y106.48 E111.76965
G1 X124.73 Y106.623 E111.80855
G1 X123.931 Y106.97 E111.84777
G1 X123.243 Y107.498 E111.88682
G1 X122.701 Y108.175 E111.92587
G1 X122.337 Y108.963 E111.96495
G1 X122.171 Y109.812 E112.0039
G1 X122.212 Y110.678 E112.04294
G1 X122.461 Y111.511 E112.08208
G1 X122.903 Y112.26 E112.12124
G1 F2700 E106.12124
G0 F7500 X123.128 Y112.09
G0 X125.256 Y112.661
G0 X125.888 Y112.705
G0 X126.514 Y112.6
G0 X127.099 Y112.346
G0 X127.604 Y111.958
G0 X128.001 Y111.462
G0 X128.27 Y110.883
G0 X128.367 Y110.379
G0 X128.455 Y108.004
G0 X126.973 Y109.143
G0 X142.398 Y121.948
G0 X141.072 Y120.623
G0 X220.861 Y40.975
G0 X220.551 Y40.663
G1 F2700 E112.12124
G1 F1800 X195.164 Y15.276 E113.73779
G0 F7500 X194.881 Y15.559
G1 F1800 X220.268 Y40.946 E115.35434
G0 F7500 X219.985 Y41.229
G1 F1800 X194.598 Y15.842 E116.97089
G0 F7500 X194.315 Y16.124
G1 F1800 X219.703 Y41.512 E118.5875
G0 F7500 X219.42 Y41.794
G1 F1800 X194.032 Y16.407 E120.20408
G0 F7500 X193.75 Y16.69
G1 F1800 X219.137 Y42.077 E121.82063
G0 F7500 X218.854 Y42.36
G1 F1800 X193.467 Y16.973 E123.43718
G0 F7500 X193.184 Y17.256
G1 F1800 X218.571 Y42.643 E125.05373
G0 F7500 X218.288 Y42.926
G1 F1800 X192.901 Y17.539 E126.67028
G0 F7500 X192.618 Y17.821
G1 F1800 X218.005 Y43.209 E128.28686
G0 F7500 X217.723 Y43.492
G1 F1800 X192.335 Y18.104 E129.90347
G0 F7500 X192.053 Y18.387
G1 F1800 X217.44 Y43.774 E131.52002
G0 F7500 X217.157 Y44.057
G1 F1800 X191.77 Y18.67 E133.13657
G0 F7500 X191.487 Y18.953
G1 F1800 X216.874 Y44.34 E134.75312
G0 F7500 X216.591 Y44.623
G1 F1800 X191.204 Y19.236 E136.36967
G0 F7500 X190.921 Y19.518
G1 F1800 X216.308 Y44.906 E137.98625
G0 F7500 X216.026 Y45.189
G1 F1800 X190.638 Y19.801 E139.60286
G0 F7500 X190.355 Y20.084
G1 F1800 X215.743 Y45.471 E141.21944
G0 F7500 X215.46 Y45.754
G1 F1800 X190.073 Y20.367 E142.83599
G0 F7500 X189.79 Y20.65
G1 F1800 X215.177 Y46.037 E144.45254
G0 F7500 X214.894 Y46.32
G1 F1800 X189.507 Y20.933 E146.06909
G0 F7500 X189.224 Y21.216
G1 F1800 X214.611 Y46.603 E147.68564
G0 F7500 X214.329 Y46.886
G1 F1800 X188.941 Y21.498 E149.30225
G0 F7500 X188.658 Y21.781
G1 F1800 X214.046 Y47.168 E150.91883
G0 F7500 X213.763 Y47.451
G1 F1800 X188.376 Y22.064 E152.53538
G0 F7500 X188.093 Y22.347
G1 F1800 X213.48 Y47.734 E154.15193
G0 F7500 X213.197 Y48.017
G1 F1800 X187.81 Y22.63 E155.76848
G0 F7500 X187.527 Y22.913
G1 F1800 X212.914 Y48.3 E157.38502
G0 F7500 X212.631 Y48.583
G1 F1800 X187.244 Y23.195 E159.00161
G0 F7500 X186.961 Y23.478
G1 F1800 X212.349 Y48.866 E160.61822
G0 F7500 X212.066 Y49.148
G1 F1800 X186.679 Y23.761 E162.23477
G0 F7500 X186.396 Y24.044
G1 F1800 X211.783 Y49.431 E163.85132
G0 F7500 X211.5 Y49.714
G1 F1800 X186.113 Y24.327 E165.46786
G0 F7500 X185.83 Y24.61
G1 F1800 X211.217 Y49.997 E167.08441
G0 F7500 X210.934 Y50.28
G1 F1800 X185.547 Y24.892 E168.70099
G0 F7500 X185.264 Y25.175
G1 F1800 X210.652 Y50.563 E170.31761
G0 F7500 X210.369 Y50.845
G1 F1800 X184.981 Y25.458 E171.93419
G0 F7500 X184.699 Y25.741
G1 F1800 X210.086 Y51.128 E173.55074
G0 F7500 X209.803 Y51.411
G1 F1800 X184.416 Y26.024 E175.16729
G0 F7500 X184.133 Y26.307
G1 F1800 X209.52 Y51.694 E176.78383
G0 F7500 X209.237 Y51.977
G1 F1800 X183.85 Y26.59 E178.40038
G0 F7500 X183.567 Y26.872
G1 F1800 X208.955 Y52.26 E180.017
G0 F7500 X208.672 Y52.542
G1 F1800 X183.284 Y27.155 E181.63358
G0 F7500 X183.002 Y27.438
G1 F1800 X208.389 Y52.825 E183.25013
G0 F7500 X208.106 Y53.108
G1 F1800 X182.719 Y27.721 E184.86668
G0 F7500 X182.436 Y28.004
G1 F1800 X207.823 Y53.391 E186.48322
G0 F7500 X207.54 Y53.674
G1 F1800 X182.153 Y28.287 E188.09977
G0 F7500 X181.87 Y28.569
G1 F1800 X207.257 Y53.957 E189.71635
G0 F7500 X206.975 Y54.24
G1 F1800 X181.587 Y28.852 E191.33297
G0 F7500 X181.305 Y29.135
G1 F1800 X206.692 Y54.522 E192.94952
G0 F7500 X206.409 Y54.805
G1 F1800 X181.022 Y29.418 E194.56606
G0 F7500 X180.739 Y29.701
G1 F1800 X206.126 Y55.088 E196.18261
G0 F7500 X205.843 Y55.371
G1 F1800 X180.456 Y29.984 E197.79916
G0 F7500 X180.173 Y30.266
G1 F1800 X205.56 Y55.654 E199.41574
G0 F7500 X205.278 Y55.937
G1 F1800 X179.89 Y30.549 E201.03236
G0 F7500 X179.607 Y30.832
G1 F1800 X204.995 Y56.219 E202.64894
G0 F7500 X204.712 Y56.502
G1 F1800 X179.325 Y31.115 E204.26549
G0 F7500 X179.042 Y31.398
G1 F1800 X204.429 Y56.785 E205.88203
G0 F7500 X204.146 Y57.068
G1 F1800 X178.759 Y31.681 E207.49858
G0 F7500 X178.476 Y31.964
G1 F1800 X203.863 Y57.351 E209.11513
G0 F7500 X203.58 Y57.634
G1 F1800 X178.193 Y32.246 E210.73171
G0 F7500 X177.91 Y32.529
G1 F1800 X203.298 Y57.916 E212.34829
G0 F7500 X203.015 Y58.199
G1 F1800 X177.628 Y32.812 E213.96484
G0 F7500 X177.345 Y33.095
G1 F1800 X202.732 Y58.482 E215.58139
G0 F7500 X202.449 Y58.765
G1 F1800 X177.062 Y33.378 E217.19794
G0 F7500 X176.779 Y33.661
G1 F1800 X202.166 Y59.048 E218.81449
G0 F7500 X201.883 Y59.331
G1 F1800 X176.496 Y33.943 E220.43107
G0 F7500 X176.213 Y34.226
G1 F1800 X201.601 Y59.614 E222.04768
G0 F7500 X201.318 Y59.896
G1 F1800 X175.93 Y34.509 E223.66426
G0 F7500 X175.648 Y34.792
G1 F1800 X201.035 Y60.179 E225.28081
G0 F7500 X200.752 Y60.462
G1 F1800 X175.365 Y35.075 E226.89736
G0 F7500 X175.082 Y35.358
G1 F1800 X200.469 Y60.745 E228.51391
G0 F7500 X200.186 Y61.028
G1 F1800 X174.799 Y35.641 E230.13046
G0 F7500 X174.516 Y35.923
G1 F1800 X199.904 Y61.311 E231.74707
G0 F7500 X199.621 Y61.593
G1 F1800 X174.233 Y36.206 E233.36365
G0 F7500 X173.951 Y36.489
G1 F1800 X199.338 Y61.876 E234.9802
G0 F7500 X199.055 Y62.159
G1 F1800 X173.668 Y36.772 E236.59675
G0 F7500 X173.385 Y37.055
G1 F1800 X198.772 Y62.442 E238.2133
G0 F7500 X198.489 Y62.725
G1 F1800 X173.102 Y37.338 E239.82985
G0 F7500 X172.819 Y37.62
G1 F1800 X198.206 Y63.008 E241.44643
G0 F7500 X197.924 Y63.291
G1 F1800 X172.536 Y37.903 E243.06304
G0 F7500 X172.254 Y38.186
G1 F1800 X197.641 Y63.573 E244.67959
G0 F7500 X197.358 Y63.856
G1 F1800 X171.971 Y38.469 E246.29614
G0 F7500 X171.688 Y38.752
G1 F1800 X197.075 Y64.139 E247.91269
G0 F7500 X196.792 Y64.422
G1 F1800 X171.405 Y39.035 E249.52924
G0 F7500 X171.122 Y39.317
G1 F1800 X196.509 Y64.705 E251.14582
G0 F7500 X196.227 Y64.988
G1 F1800 X170.839 Y39.6 E252.76243
G0 F7500 X170.556 Y39.883
G1 F1800 X195.944 Y65.27 E254.37901
G0 F7500 X195.661 Y65.553
G1 F1800 X170.274 Y40.166 E255.99556
G0 F7500 X169.991 Y40.449
G1 F1800 X195.378 Y65.836 E257.61211
G0 F7500 X195.095 Y66.119
G1 F1800 X169.708 Y40.732 E259.22866
G0 F7500 X169.425 Y41.015
G1 F1800 X194.812 Y66.402 E260.84521
G0 F7500 X194.53 Y66.685
G1 F1800 X169.142 Y41.297 E262.46182
G0 F7500 X168.859 Y41.58
