;FLAVOR:Marlin
M117 Time Left 2h49m28s
;Filament used: 13.3058m
;Layer height: 0.28
;MINX:0.191
;MINY:0.351
;MINZ:0.285
;MAXX:232.529
;MAXY:232.687
;MAXZ:29.965
;POSTPROCESSED
;Generated with Cura_SteamEngine 4.6.1
M140 S50
M105
M190 S50
M104 S200
M105
M109 S200
M82 ;absolute extrusion mode
; Ender 3 Custom Start G-code
G92 E0 ; Reset Extruder
G28 ; Home all axes
G1 Z2.0 F3000 ; Move Z Axis up little to prevent scratching of Heat Bed
G1 X0.1 Y20 Z0.3 F5000.0 ; Move to start position
G1 X0.1 Y200.0 Z0.3 F1500.0 E15 ; Draw the first line
G1 X0.4 Y200.0 Z0.3 F5000.0 ; Move to side a little
G1 X0.4 Y20 Z0.3 F1500.0 E30 ; Draw the second line
G92 E0 ; Reset Extruder
G1 Z2.0 F3000 ; Move Z Axis up little to prevent scratching of Heat Bed
G1 X5 Y20 Z0.3 F5000.0 ; Move over to prevent blob squish
G92 E0
G92 E0
G1 F2700 E-6
;LAYER_COUNT:107
;LAYER:0
M107
M204 S500
M205 X8 Y8
G0 F7500 X196.039 Y1.364 Z0.285
;TYPE:SKIRT
G1 F2700 E0
G1 F1500 X196.914 Y1.586 E0.04065
G1 X197.766 Y1.885 E0.0813
G1 X198.589 Y2.259 E0.122
G1 X199.375 Y2.703 E0.16265
G1 X200.119 Y3.216 E0.20334
G1 X200.981 Y3.946 E0.2542
G1 X201.406 Y4.355 E0.28076
G1 X228.364 Y31.313 E1.99734
G1 X228.832 Y31.793 E2.02753
G1 X229.433 Y32.467 E2.06819
G1 X229.973 Y33.192 E2.10889
G1 X230.446 Y33.961 E2.14954
G1 X230.849 Y34.769 E2.1902
G1 X231.179 Y35.61 E2.23088
G1 X231.433 Y36.476 E2.27151
G1 X231.61 Y37.362 E2.31219
G1 X231.708 Y38.26 E2.35287
G1 X231.726 Y39.163 E2.39353
G1 X231.664 Y40.064 E2.4342
G1 X231.523 Y40.956 E2.47486
G1 X231.303 Y41.832 E2.51553
G1 X231.006 Y42.685 E2.55619
G1 X230.636 Y43.508 E2.59682
G1 X230.194 Y44.296 E2.6375
G1 X229.684 Y45.041 E2.67816
G1 X228.955 Y45.907 E2.72912
G1 X228.745 Y46.13 E2.74292
G1 X228.531 Y46.349 E2.7567
G1 X91.075 Y183.805 E11.50939
G1 X89.197 Y185.737 E11.6307
G1 X87.476 Y187.612 E11.7453
G1 X85.826 Y189.514 E11.85867
G1 X84.223 Y191.469 E11.9725
G1 X82.635 Y193.523 E12.0894
G1 X81.168 Y195.537 E12.20159
G1 X79.727 Y197.637 E12.31627
G1 X78.353 Y199.764 E12.43028
G1 X77.023 Y201.959 E12.54584
G1 X75.779 Y204.147 E12.65917
G1 X74.584 Y206.396 E12.77384
G1 X73.461 Y208.66 E12.88763
G1 X72.39 Y210.988 E13.00301
G1 X71.316 Y213.507 E13.12631
G1 X68.93 Y219.346 E13.41032
G1 X68.644 Y220.02 E13.44328
G1 X68.254 Y220.835 E13.48396
G1 X67.795 Y221.613 E13.52464
G1 X67.268 Y222.346 E13.56528
G1 X66.571 Y223.142 E13.61292
G1 X65.926 Y223.805 E13.65457
G1 X61.248 Y228.481 E13.95238
G1 X60.726 Y228.99 E13.98521
G1 X60.052 Y229.591 E14.02587
G1 X59.328 Y230.13 E14.06651
G1 X58.558 Y230.603 E14.1072
G1 X57.75 Y231.007 E14.14788
G1 X56.91 Y231.337 E14.18851
G1 X56.043 Y231.591 E14.22919
G1 X55.158 Y231.768 E14.26983
G1 X54.26 Y231.866 E14.3105
G1 X53.357 Y231.884 E14.35117
G1 X52.456 Y231.822 E14.39183
G1 X51.564 Y231.681 E14.43249
G1 X50.688 Y231.461 E14.47316
G1 X49.835 Y231.165 E14.51382
G1 X49.011 Y230.794 E14.5545
G1 X48.224 Y230.352 E14.59515
G1 X47.478 Y229.842 E14.63583
G1 X46.631 Y229.13 E14.68566
G1 X46.393 Y228.907 E14.70034
G1 X46.155 Y228.676 E14.71527
G1 X4.348 Y186.869 E17.37739
G1 X3.88 Y186.388 E17.4076
G1 X3.28 Y185.713 E17.44827
G1 X2.741 Y184.988 E17.48894
G1 X2.269 Y184.219 E17.52957
G1 X1.867 Y183.41 E17.57025
G1 X1.538 Y182.569 E17.61091
G1 X1.284 Y181.702 E17.65159
G1 X1.108 Y180.817 E17.69221
G1 X1.011 Y179.919 E17.73288
G1 X0.994 Y179.016 E17.77355
G1 X1.057 Y178.115 E17.81422
G1 X1.2 Y177.223 E17.85489
G1 X1.42 Y176.347 E17.89556
G1 X1.717 Y175.495 E17.93619
G1 X2.089 Y174.671 E17.97689
G1 X2.532 Y173.884 E18.01756
G1 X3.043 Y173.14 E18.0582
G1 X3.782 Y172.265 E18.10976
G1 X4.19 Y171.84 E18.13629
G1 X9.242 Y166.788 E18.45798
G1 X9.722 Y166.321 E18.48814
G1 X10.397 Y165.721 E18.5288
G1 X11.122 Y165.182 E18.56948
G1 X11.892 Y164.71 E18.61014
G1 X12.822 Y164.255 E18.65676
G1 X13.665 Y163.895 E18.69803
G1 X19.357 Y161.57 E18.97488
G1 X21.76 Y160.549 E19.09244
G1 X24.071 Y159.488 E19.20693
G1 X26.354 Y158.361 E19.32157
G1 X28.597 Y157.175 E19.43581
G1 X30.812 Y155.92 E19.55044
G1 X32.953 Y154.627 E19.66306
G1 X35.111 Y153.24 E19.77856
G1 X37.211 Y151.805 E19.89308
G1 X39.266 Y150.311 E20.00748
G1 X41.269 Y148.768 E20.12132
G1 X43.266 Y147.138 E20.23739
G1 X45.161 Y145.498 E20.35023
G1 X47.012 Y143.804 E20.46321
G1 X49.079 Y141.799 E20.59287
G1 X186.386 Y4.492 E29.33606
G1 X186.868 Y4.025 E29.36628
G1 X187.544 Y3.426 E29.40695
G1 X188.27 Y2.889 E29.44761
G1 X189.041 Y2.419 E29.48826
G1 X189.85 Y2.018 E29.52892
G1 X190.692 Y1.691 E29.56959
G1 X191.559 Y1.439 E29.61024
G1 X192.446 Y1.265 E29.65094
G1 X193.344 Y1.17 E29.6916
G1 X194.247 Y1.155 E29.73226
G1 X195.147 Y1.22 E29.77289
G1 X196.039 Y1.364 E29.81358
G0 F7500 X195.927 Y0.934
G1 F1500 X196.824 Y1.144 E29.85506
G1 X197.699 Y1.43 E29.8965
G1 X198.546 Y1.791 E29.93796
G1 X199.358 Y2.225 E29.97942
G1 X200.129 Y2.727 E30.02084
G1 X200.854 Y3.294 E30.06228
G1 X201.256 Y3.656 E30.08664
G1 X201.689 Y4.072 E30.11368
G1 X228.651 Y31.034 E31.83052
G1 X229.119 Y31.514 E31.8607
G1 X229.732 Y32.201 E31.90216
G1 X230.284 Y32.938 E31.94362
G1 X230.769 Y33.72 E31.98505
G1 X231.185 Y34.541 E32.02649
G1 X231.528 Y35.396 E32.06797
G1 X231.796 Y36.277 E32.10943
G1 X231.986 Y37.177 E32.15085
G1 X232.097 Y38.091 E32.1923
G1 X232.129 Y39.011 E32.23375
G1 X232.08 Y39.931 E32.27524
G1 X231.952 Y40.843 E32.3167
G1 X231.745 Y41.74 E32.35815
G1 X231.462 Y42.616 E32.3996
G1 X231.103 Y43.463 E32.44102
G1 X230.672 Y44.277 E32.48249
G1 X230.172 Y45.05 E32.52395
G1 X229.607 Y45.777 E32.5654
G1 X229.246 Y46.181 E32.5898
G1 X229.036 Y46.404 E32.60359
G1 X228.814 Y46.632 E32.61792
G1 X91.326 Y184.12 E41.37264
G1 X89.495 Y186.004 E41.49093
G1 X87.789 Y187.862 E41.6045
G1 X86.124 Y189.782 E41.71893
G1 X84.516 Y191.742 E41.83308
G1 X82.988 Y193.718 E41.94555
G1 X81.489 Y195.778 E42.06026
G1 X80.049 Y197.875 E42.1748
G1 X78.688 Y199.982 E42.28774
G1 X77.379 Y202.142 E42.40146
G1 X76.114 Y204.368 E42.51674
G1 X74.937 Y206.582 E42.62964
G1 X73.825 Y208.826 E42.7424
G1 X72.763 Y211.134 E42.8568
G1 X71.673 Y213.689 E42.98187
G1 X69.298 Y219.503 E43.26465
G1 X69.012 Y220.177 E43.29762
G1 X68.616 Y221.008 E43.33906
G1 X68.149 Y221.801 E43.3805
G1 X67.615 Y222.551 E43.42196
G1 X66.858 Y223.421 E43.47388
G1 X66.209 Y224.088 E43.51578
G1 X61.527 Y228.767 E43.81382
G1 X61.005 Y229.276 E43.84665
G1 X60.319 Y229.89 E43.8881
G1 X59.582 Y230.441 E43.92953
G1 X58.8 Y230.927 E43.97099
G1 X57.978 Y231.343 E44.01247
G1 X57.124 Y231.686 E44.05391
G1 X56.243 Y231.954 E44.09537
G1 X55.342 Y232.144 E44.13683
G1 X54.428 Y232.255 E44.17829
G1 X53.508 Y232.287 E44.21974
G1 X52.589 Y232.238 E44.26117
G1 X51.677 Y232.11 E44.30264
G1 X50.78 Y231.904 E44.34408
G1 X49.904 Y231.62 E44.38554
G1 X49.056 Y231.261 E44.42701
G1 X48.242 Y230.83 E44.46848
G1 X47.469 Y230.331 E44.50991
G1 X46.742 Y229.766 E44.55136
G1 X46.357 Y229.422 E44.57461
G1 X46.119 Y229.199 E44.58929
G1 X45.872 Y228.959 E44.6048
G1 X4.164 Y187.251 E47.26061
G1 X4.062 Y187.148 E47.26714
G1 X3.594 Y186.667 E47.29735
G1 X2.981 Y185.98 E47.33881
G1 X2.43 Y185.242 E47.38028
G1 X1.945 Y184.459 E47.42175
G1 X1.53 Y183.638 E47.46317
G1 X1.188 Y182.783 E47.50463
G1 X0.922 Y181.902 E47.54607
G1 X0.732 Y181.001 E47.58753
G1 X0.622 Y180.087 E47.62898
G1 X0.592 Y179.167 E47.67043
G1 X0.641 Y178.247 E47.71191
G1 X0.77 Y177.336 E47.75334
G1 X0.978 Y176.439 E47.7948
G1 X1.262 Y175.563 E47.83626
G1 X1.622 Y174.716 E47.8777
G1 X2.053 Y173.902 E47.91917
G1 X2.554 Y173.13 E47.96061
G1 X3.12 Y172.404 E48.00206
G1 X3.491 Y171.99 E48.02709
G1 X3.907 Y171.557 E48.05413
G1 X8.963 Y166.501 E48.37607
G1 X9.443 Y166.034 E48.40623
G1 X10.13 Y165.422 E48.44765
G1 X10.868 Y164.871 E48.48912
G1 X11.651 Y164.386 E48.53059
G1 X12.665 Y163.887 E48.58148
G1 X13.514 Y163.525 E48.62303
G1 X19.198 Y161.203 E48.89949
G1 X21.602 Y160.182 E49.01709
G1 X23.877 Y159.137 E49.12982
G1 X26.169 Y158.006 E49.2449
G1 X28.419 Y156.816 E49.3595
G1 X30.587 Y155.588 E49.47169
G1 X32.777 Y154.265 E49.58689
G1 X34.891 Y152.906 E49.70005
G1 X36.98 Y151.479 E49.81396
G1 X39.009 Y150.004 E49.92691
G1 X41.039 Y148.44 E50.04229
G1 X42.977 Y146.859 E50.1549
G1 X44.912 Y145.183 E50.27017
G1 X46.747 Y143.505 E50.38212
G1 X48.767 Y141.545 E50.50885
G1 X185.989 Y4.323 E59.24664
G1 X186.108 Y4.205 E59.25418
G1 X186.59 Y3.738 E59.2844
G1 X187.278 Y3.127 E59.32583
G1 X188.017 Y2.578 E59.36728
G1 X188.801 Y2.094 E59.40877
G1 X189.624 Y1.681 E59.45023
G1 X190.479 Y1.341 E59.49166
G1 X191.361 Y1.076 E59.53312
G1 X192.262 Y0.889 E59.57456
G1 X193.177 Y0.78 E59.61605
G1 X194.097 Y0.752 E59.65749
G1 X195.016 Y0.803 E59.69893
G1 X195.927 Y0.934 E59.74037
G0 F7500 X195.811 Y0.507
G1 F1500 X196.728 Y0.704 E59.7826
G1 X197.625 Y0.978 E59.82483
G1 X198.496 Y1.327 E59.86708
G1 X199.333 Y1.749 E59.90929
G1 X200.132 Y2.241 E59.95154
G1 X200.885 Y2.8 E59.99376
G1 X201.531 Y3.366 E60.03244
G1 X201.972 Y3.789 E60.05995
G1 X228.937 Y30.755 E61.77701
G1 X229.405 Y31.235 E61.8072
G1 X230.031 Y31.934 E61.84945
G1 X230.594 Y32.683 E61.89164
G1 X231.092 Y33.478 E61.93387
G1 X231.52 Y34.312 E61.97608
G1 X231.876 Y35.18 E62.01832
G1 X232.156 Y36.075 E62.06055
G1 X232.36 Y36.991 E62.1028
G1 X232.484 Y37.92 E62.145
G1 X232.529 Y38.857 E62.18724
G1 X232.494 Y39.794 E62.22946
G1 X232.379 Y40.725 E62.2717
G1 X232.185 Y41.643 E62.31394
G1 X231.914 Y42.541 E62.35618
G1 X231.567 Y43.412 E62.39839
G1 X231.148 Y44.251 E62.44062
G1 X230.658 Y45.051 E62.48286
G1 X230.102 Y45.806 E62.52508
G1 X229.537 Y46.455 E62.56382
G1 X229.097 Y46.915 E62.59248
G1 X91.613 Y184.399 E71.34695
G1 X89.794 Y186.271 E71.46447
G1 X88.087 Y188.129 E71.57808
G1 X86.417 Y190.056 E71.69289
G1 X84.843 Y191.974 E71.80461
G1 X83.283 Y193.992 E71.91946
G1 X81.826 Y195.993 E72.03091
G1 X80.382 Y198.097 E72.14581
G1 X79.023 Y200.201 E72.25858
G1 X77.735 Y202.325 E72.37043
G1 X76.472 Y204.547 E72.48551
G1 X75.292 Y206.769 E72.59879
G1 X74.175 Y209.021 E72.71197
G1 X73.13 Y211.293 E72.82458
G1 X72.031 Y213.871 E72.95076
G1 X69.666 Y219.659 E73.23229
G1 X69.38 Y220.333 E73.26525
G1 X68.977 Y221.18 E73.30749
G1 X68.504 Y221.989 E73.34968
G1 X67.963 Y222.756 E73.39194
G1 X67.145 Y223.7 E73.44818
G1 X66.491 Y224.371 E73.49037
G1 X61.806 Y229.054 E73.78863
G1 X61.284 Y229.563 E73.82146
G1 X60.586 Y230.188 E73.86365
G1 X59.836 Y230.752 E73.9059
G1 X59.041 Y231.25 E73.94814
G1 X58.207 Y231.678 E73.99035
G1 X57.339 Y232.034 E74.03259
G1 X56.444 Y232.314 E74.07481
G1 X55.529 Y232.517 E74.11701
G1 X54.599 Y232.642 E74.15926
G1 X53.662 Y232.687 E74.2015
G1 X52.725 Y232.652 E74.24372
G1 X51.794 Y232.537 E74.28596
G1 X50.877 Y232.343 E74.32816
G1 X49.979 Y232.072 E74.37039
G1 X49.107 Y231.725 E74.41265
G1 X48.269 Y231.306 E74.45484
G1 X47.469 Y230.816 E74.49708
G1 X46.713 Y230.26 E74.53933
G1 X46.084 Y229.714 E74.57683
G1 X45.846 Y229.491 E74.59152
G1 X45.589 Y229.242 E74.60763
G1 X3.881 Y187.534 E77.26344
G1 X3.775 Y187.427 E77.27022
G1 X3.307 Y186.946 E77.30044
G1 X2.682 Y186.246 E77.34269
G1 X2.119 Y185.496 E77.38492
G1 X1.622 Y184.701 E77.42713
G1 X1.195 Y183.866 E77.46936
G1 X0.84 Y182.998 E77.51158
G1 X0.561 Y182.103 E77.5538
G1 X0.358 Y181.187 E77.59604
G1 X0.235 Y180.257 E77.63828
G1 X0.191 Y179.32 E77.68051
G1 X0.227 Y178.383 E77.72273
G1 X0.343 Y177.452 E77.76498
G1 X0.538 Y176.535 E77.80719
G1 X0.81 Y175.637 E77.84944
G1 X1.157 Y174.766 E77.89165
G1 X1.578 Y173.928 E77.93388
G1 X2.068 Y173.129 E77.97608
G1 X2.625 Y172.374 E78.01832
G1 X3.201 Y171.715 E78.05773
G1 X3.624 Y171.274 E78.08525
G1 X8.684 Y166.215 E78.40742
G1 X9.164 Y165.748 E78.43757
G1 X9.864 Y165.123 E78.47982
G1 X10.614 Y164.56 E78.52205
G1 X11.409 Y164.063 E78.56426
G1 X12.507 Y163.519 E78.61944
G1 X13.362 Y163.155 E78.66128
G1 X19.039 Y160.836 E78.93739
G1 X21.428 Y159.821 E79.05427
G1 X23.741 Y158.759 E79.16887
G1 X25.983 Y157.652 E79.28145
G1 X28.214 Y156.473 E79.39507
G1 X30.389 Y155.241 E79.50762
G1 X32.55 Y153.935 E79.62131
G1 X34.679 Y152.567 E79.73525
G1 X36.741 Y151.157 E79.84772
G1 X38.776 Y149.679 E79.96097
G1 X40.787 Y148.129 E80.07529
G1 X42.728 Y146.545 E80.18809
G1 X44.624 Y144.904 E80.301
G1 X46.481 Y143.205 E80.41433
G1 X48.488 Y141.258 E80.54023
G1 X185.706 Y4.04 E89.27776
G1 X185.83 Y3.918 E89.28559
G1 X186.312 Y3.451 E89.31581
G1 X187.013 Y2.828 E89.35803
G1 X187.764 Y2.266 E89.40027
G1 X188.56 Y1.771 E89.44247
G1 X189.396 Y1.345 E89.48472
G1 X190.265 Y0.992 E89.52695
G1 X191.161 Y0.715 E89.56918
G1 X192.077 Y0.514 E89.6114
G1 X193.007 Y0.393 E89.65363
G1 X193.944 Y0.351 E89.69586
G1 X194.881 Y0.389 E89.73809
G1 X195.811 Y0.507 E89.7803
G1 F2700 E83.7803
;MESH:soporte_dremel_extension.stl
G0 F7500 X125.271 Y107.373
G0 X126.44 Y105.916
G0 X124.186 Y105.929
G0 X123.558 Y106.035
G0 X122.975 Y106.289
G0 X122.47 Y106.677
G0 X122.072 Y107.173
G0 X121.804 Y107.752
G0 X121.707 Y108.256
G0 X121.77 Y110.513
;TYPE:WALL-INNER
G1 F2700 E89.7803
G1 F1800 X122.31 Y111.063 E89.815
G1 X122.968 Y111.473 E89.84991
G1 X123.706 Y111.71 E89.88481
G1 X124.425 Y111.759 E89.91726
G1 X124.472 Y111.763 E89.91938
G1 X125.234 Y111.635 E89.95417
G1 X125.943 Y111.326 E89.989
G1 X126.556 Y110.856 E90.02378
G1 X127.039 Y110.253 E90.05856
G1 X127.362 Y109.551 E90.09336
G1 X127.511 Y108.796 E90.12801
G1 X127.474 Y108.022 E90.1629
G1 X127.252 Y107.28 E90.19777
G1 X126.86 Y106.616 E90.23249
G1 X126.32 Y106.066 E90.26719
G1 X125.664 Y105.657 E90.302
G1 X124.928 Y105.418 E90.33684
G1 X124.205 Y105.369 E90.36947
G1 X124.157 Y105.365 E90.37164
G1 X123.397 Y105.494 E90.40635
G1 X122.687 Y105.803 E90.44121
G1 X122.074 Y106.273 E90.47599
G1 X121.591 Y106.876 E90.51078
G1 X121.268 Y107.578 E90.54557
G1 X121.119 Y108.333 E90.58022
G1 X121.156 Y109.107 E90.61511
G1 X121.378 Y109.847 E90.6499
G1 X121.77 Y110.513 E90.6847
G0 F7500 X122.09 Y110.268
G1 F1800 X122.562 Y110.749 E90.71504
G1 X123.137 Y111.107 E90.74554
G1 X123.782 Y111.314 E90.77604
G1 X124.453 Y111.361 E90.80632
G1 X125.119 Y111.249 E90.83673
G1 X125.738 Y110.979 E90.86714
G1 X126.274 Y110.568 E90.89755
G1 X126.696 Y110.041 E90.92795
G1 X126.979 Y109.427 E90.95839
G1 X127.109 Y108.766 E90.98872
G1 X127.077 Y108.09 E91.0192
G1 X126.883 Y107.441 E91.04969
G1 X126.54 Y106.861 E91.08003
G1 X126.068 Y106.38 E91.11038
G1 X125.494 Y106.022 E91.14084
G1 X124.851 Y105.814 E91.17127
G1 X124.177 Y105.767 E91.20169
G1 X123.512 Y105.88 E91.23206
G1 X122.892 Y106.15 E91.26251
G1 X122.356 Y106.561 E91.29292
G1 X121.934 Y107.088 E91.32332
G1 X121.651 Y107.702 E91.35376
G1 X121.521 Y108.363 E91.38409
G1 X121.553 Y109.039 E91.41456
G1 X121.747 Y109.686 E91.44498
G1 X122.09 Y110.268 E91.47539
G0 F7500 X122.41 Y110.023
;TYPE:WALL-OUTER
G1 F1800 X122.814 Y110.435 E91.50008
G1 X123.306 Y110.741 E91.52486
G1 X123.858 Y110.918 E91.54965
G1 X124.434 Y110.959 E91.57436
G1 X125.004 Y110.863 E91.59908
G1 X125.533 Y110.632 E91.62377
G1 X125.992 Y110.28 E91.64851
G1 X126.353 Y109.829 E91.67322
G1 X126.596 Y109.303 E91.69801
G1 X126.707 Y108.736 E91.72272
G1 X126.68 Y108.158 E91.74747
G1 X126.514 Y107.603 E91.77225
G1 X126.22 Y107.106 E91.79695
G1 X125.816 Y106.694 E91.82163
G1 X125.324 Y106.388 E91.84642
G1 X124.774 Y106.21 E91.87114
G1 X124.197 Y106.169 E91.89589
G1 X123.627 Y106.266 E91.92062
G1 X123.097 Y106.497 E91.94535
G1 X122.638 Y106.849 E91.97009
G1 X122.277 Y107.3 E91.9948
G1 X122.034 Y107.826 E92.01959
G1 X121.923 Y108.393 E92.0443
G1 X121.95 Y108.971 E92.06905
G1 X122.116 Y109.525 E92.09379
G1 X122.41 Y110.023 E92.11853
G0 F7500 X122.69 Y110.308
G0 X122.375 Y110.615
G1 F2700 E86.11853
G0 F7500 X121.617 Y110.63
G0 X123.1 Y109.492
G0 X53.894 Y177.775
G0 X54.254 Y175.94
G0 X51.978 Y176.513
;TYPE:WALL-INNER
G1 F2700 E92.11853
G1 F1800 X51.364 Y176.983 E92.15334
G1 X50.881 Y177.587 E92.18816
G1 X50.557 Y178.289 E92.22298
G1 X50.408 Y179.043 E92.25758
G1 X50.445 Y179.817 E92.29247
G1 X50.667 Y180.56 E92.32739
G1 X51.062 Y181.226 E92.36225
G1 X51.6 Y181.774 E92.39683
G1 X52.256 Y182.183 E92.43164
G1 X52.993 Y182.421 E92.46651
G1 X53.715 Y182.47 E92.49909
G1 X53.763 Y182.474 E92.50126
G1 X54.522 Y182.345 E92.53593
G1 X55.231 Y182.037 E92.57073
G1 X55.845 Y181.567 E92.60555
G1 X56.328 Y180.963 E92.64037
G1 X56.652 Y180.262 E92.67514
G1 X56.8 Y179.505 E92.70987
G1 X56.763 Y178.735 E92.74458
